fast-forward-60.svg

<svg fill="currentColor" viewBox="0 0 24 24"><path d="M11.5 3c-4.7 0-8.6 3-10 7.2l2.4.8c1-3.2 4.1-5.5 7.6-5.5 2 0 3.7.7 5.1 1.9L14 10h7V3l-2.6 2.6C16.5 4 14.1 3 11.5 3M19 14v6c0 1.1-.9 2-2 2h-2c-1.1 0-2-.9-2-2v-6c0-1.1.9-2 2-2h2c1.1 0 2 .9 2 2m-4 0v6h2v-6zm-8-2c-1.1 0-2 .9-2 2v6c0 1.1.9 2 2 2h2c1.1 0 2-.9 2-2v-2c0-1.1-.9-2-2-2H7v-2h4v-2zm0 6h2v2H7z"/></svg>

<svg  viewBox="0 0 24 24" fill="currentColor"><path  d="M11.5 3C6.8 3 2.9 6 1.5 10.2L3.9 11C4.9 7.8 8 5.5 11.5 5.5C13.5 5.5 15.2 6.2 16.6 7.4L14 10H21V3L18.4 5.6C16.5 4 14.1 3 11.5 3M19 14V20C19 21.1 18.1 22 17 22H15C13.9 22 13 21.1 13 20V14C13 12.9 13.9 12 15 12H17C18.1 12 19 12.9 19 14M15 14V20H17V14H15M7 12C5.9 12 5 12.9 5 14V20C5 21.1 5.9 22 7 22H9C10.1 22 11 21.1 11 20V18C11 16.9 10.1 16 9 16H7V14H11V12H7M7 18H9V20H7V18Z"/></svg>
